data/img/mute.svg

<?xml version="1.0" encoding="UTF-8" standalone="no"?>
<svg width="18px" height="18px" viewBox="0 0 18 18" version="1.1" xmlns="http://www.w3.org/2000/svg" xmlns:xlink="http://www.w3.org/1999/xlink">
    <!-- Generator: Sketch 3.8.2 (29753) - http://www.bohemiancoding.com/sketch -->
    <title>mute</title>
    <desc>Created with Sketch.</desc>
    <defs></defs>
    <g id="Page-1" stroke="none" stroke-width="1" fill="none" fill-rule="evenodd">
        <g id="mute" fill="#FFFFFF">
            <path d="M2.25065737,11.7493426 C1.00749917,11.7206609 0,10.7571004 0,9.58333333 L0,7.41666667 C0,6.225 1.03846154,5.25 2.30769231,5.25 L3.69230769,5.25 L8,2 L8,6 L2.25065737,11.7493426 Z M9,7 L10,6 L10,8 L8,10 L8,15 L5.15012723,12.8498728 L1,17 L1,15 L2.50508906,13.4949109 L9,7 Z"></path>
        </g>
    </g>
</svg>

<svg width="18" height="18" viewBox="0 0 18 18" xmlns="http://www.w3.org/2000/svg"><title>mute</title><path d="M2.25 11.75C1.008 11.72 0 10.756 0 9.582V7.417C0 6.225 1.038 5.25 2.308 5.25h1.384L8 2v4l-5.75 5.75zM9 7l1-1v2l-2 2v5l-2.85-2.15L1 17v-2l1.505-1.505L9 7z" fill="#FFF" fill-rule="evenodd"/></svg>
